64x64/apps/builder.svg

<svg xmlns="http://www.w3.org/2000/svg" width="64" height="64" version="1.1">
 <path style="fill:none;stroke:#cbbb2e;stroke-width:11.99734211" d="M 36.992469,11.004652 20.996013,27.001107"/>
 <rect style="fill:#cbbb2e" width="15.996" height="33.992" x="-25" y="23" ry="0" transform="scale(-1,1)"/>
 <path style="fill:#d6c84a" d="m 24.995127,52.995348 c 1.999557,0 1.999557,1.999558 1.999557,1.999558 l 0,3.999113 -19.9955698,0 0,-3.999113 c 0,-1.999558 1.999557,-1.999558 1.999557,-1.999558 z"/>
 <path style="fill:#4f4f4f" d="m 28.994241,54.994906 c 1.999557,0 1.999557,1.999557 1.999557,1.999557 l 0,3.999114 -27.9937978,0 0,-3.999114 c 0,-1.999557 1.999557,-1.999557 1.999557,-1.999557 z"/>
 <path style="fill:none;stroke:#cbbb2e;stroke-width:7.99822807;stroke-linecap:square" d="m 36.992469,11.004652 7.998228,7.998228"/>
 <rect style="opacity:0.2" width="15.996" height="15.996" x="-44.99" y="4" ry="7.998" transform="scale(-1,1)"/>
 <rect style="opacity:0.2" width="23.995" height="23.995" x="-28.99" y="20" ry="11.997" transform="scale(-1,1)"/>
 <rect style="fill:#d6c84a" width="23.995" height="23.995" x="-28.99" y="19" ry="11.997" transform="scale(-1,1)"/>
 <rect style="fill:#4f4f4f" width="15.996" height="15.996" x="-25" y="23" ry="7.998" transform="scale(-1,1)"/>
 <rect style="opacity:0.1;fill:#f4f4f7" width="11.997" height="11.997" x="-23" y="25" ry="5.999" transform="scale(-1,1)"/>
 <rect style="fill:#d6c84a" width="15.996" height="15.996" x="-44.99" y="3.01" ry="7.998" transform="scale(-1,1)"/>
 <path style="fill:none;stroke:#4f4f4f;stroke-width:3.99911404;stroke-linecap:round" d="m 48.989811,32.999778 -3.999114,-1.999556 0,-7.998229 3.999114,-3.999113 7.998228,0 1.999557,3.999113"/>
 <rect style="fill:#4f4f4f" width="7.998" height="7.998" x="-40.99" y="7.01" ry="3.999" transform="scale(-1,1)"/>
 <path style="opacity:0.2;fill:#f4f4f7" d="M 16.996094 19.001953 C 10.349567 19.001953 5 24.353472 5 31 C 5 31.166329 5.0163424 31.328288 5.0253906 31.492188 C 5.2916865 25.084854 10.521012 20.001953 16.996094 20.001953 C 23.473821 20.001953 28.706414 25.088964 28.96875 31.5 C 28.978074 31.333554 28.994141 31.168803 28.994141 31 C 28.994141 24.353472 23.642622 19.001953 16.996094 19.001953 z"/>
 <path style="opacity:0.2;fill:#f4f4f7" d="M 36.992188 3.0058594 C 32.561169 3.0058594 28.994141 6.5728874 28.994141 11.003906 C 28.994141 11.120284 29.017151 11.230265 29.027344 11.34375 C 29.362387 7.225372 32.784573 4.0058594 36.992188 4.0058594 C 41.199803 4.0058594 44.621989 7.225372 44.957031 11.34375 C 44.967224 11.230265 44.990234 11.120284 44.990234 11.003906 C 44.990234 6.5728874 41.423206 3.0058594 36.992188 3.0058594 z"/>
 <path style="opacity:0.1;fill:#f4f4f7" d="M 5 54.994141 C 5 54.994141 3 54.994584 3 56.994141 L 3 58 C 3 56.000443 5 56 5 56 L 28.994141 56 C 30.993698 56 30.994141 58 30.994141 58 L 30.994141 56.994141 C 30.994141 56.994141 30.993698 54.994141 28.994141 54.994141 L 5 54.994141 z"/>
</svg>

<svg xmlns="http://www.w3.org/2000/svg" width="64" height="64"><path style="fill:none;stroke:#cbbb2e;stroke-width:11.99734211" d="M36.992 11.005 20.996 27"/><rect style="fill:#cbbb2e" width="15.996" height="33.992" x="-25" y="23" ry="0" transform="scale(-1 1)"/><path style="fill:#d6c84a" d="M24.995 52.995c2 0 2 2 2 2v3.999H6.999v-4c0-1.999 2-1.999 2-1.999z"/><path style="fill:#4f4f4f" d="M28.994 54.995c2 0 2 2 2 2v3.999H3v-4c0-2 2-2 2-2z"/><path style="fill:none;stroke:#cbbb2e;stroke-width:7.99822807;stroke-linecap:square" d="m36.992 11.005 7.999 7.998"/><rect style="opacity:.2" width="15.996" height="15.996" x="-44.99" y="4" ry="7.998" transform="scale(-1 1)"/><rect style="opacity:.2" width="23.995" height="23.995" x="-28.99" y="20" ry="11.997" transform="scale(-1 1)"/><rect style="fill:#d6c84a" width="23.995" height="23.995" x="-28.99" y="19" ry="11.997" transform="scale(-1 1)"/><rect style="fill:#4f4f4f" width="15.996" height="15.996" x="-25" y="23" ry="7.998" transform="scale(-1 1)"/><rect style="opacity:.1;fill:#f4f4f7" width="11.997" height="11.997" x="-23" y="25" ry="5.999" transform="scale(-1 1)"/><rect style="fill:#d6c84a" width="15.996" height="15.996" x="-44.99" y="3.01" ry="7.998" transform="scale(-1 1)"/><path style="fill:none;stroke:#4f4f4f;stroke-width:3.99911404;stroke-linecap:round" d="m48.99 33-4-2v-7.998l4-4h7.998l2 4"/><rect style="fill:#4f4f4f" width="7.998" height="7.998" x="-40.99" y="7.01" ry="3.999" transform="scale(-1 1)"/><path style="opacity:.2;fill:#f4f4f7" d="M16.996 19.002A11.97 11.97 0 0 0 5 31c0 .166.016.328.025.492a11.96 11.96 0 0 1 11.971-11.49A11.96 11.96 0 0 1 28.97 31.5c.01-.166.025-.331.025-.5a11.972 11.972 0 0 0-11.998-11.998zM36.992 3.006a7.98 7.98 0 0 0-7.998 7.998c0 .116.023.226.033.34a7.976 7.976 0 0 1 7.965-7.338c4.208 0 7.63 3.22 7.965 7.338.01-.114.033-.224.033-.34a7.98 7.98 0 0 0-7.998-7.998z"/><path style="opacity:.1;fill:#f4f4f7" d="M5 54.994s-2 0-2 2V58c0-2 2-2 2-2h23.994c2 0 2 2 2 2v-1.006s0-2-2-2H5z"/></svg>
